unum/images/clear-space-logo.svg

<?xml version="1.0" encoding="UTF-8"?>
<svg width="271px" height="174px" viewBox="0 0 271 174" version="1.1" xmlns="http://www.w3.org/2000/svg" xmlns:xlink="http://www.w3.org/1999/xlink">
    <!-- Generator: Sketch 43.2 (39069) - http://www.bohemiancoding.com/sketch -->
    <title>clear-space-logo</title>
    <desc>Created with Sketch.</desc>
    <defs>
        <polygon id="path-1" points="0 175.165136 270.473682 175.165136 270.473682 0.17128738 0 0.17128738"></polygon>
    </defs>
    <g id="Pages" stroke="none" stroke-width="1" fill="none" fill-rule="evenodd">
        <g id="Web" transform="translate(-370.000000, -1639.000000)">
            <g id="Logo" transform="translate(370.000000, 566.000000)">
                <g id="Clear-Space" transform="translate(0.000000, 995.000000)">
                    <g id="clear-space-logo" transform="translate(0.000000, 78.000000)">
                        <g id="Group-45" transform="translate(206.000000, 77.472029)"></g>
                        <path d="M22.9928398,138.005107 C11.4287195,138.005107 8.8190912,130.491298 8.8190912,125.331777 L8.8190912,110.141351 L17.3437207,110.141351 L17.3437207,124.753161 C17.3437207,128.758964 19.5961064,130.508867 22.9928398,130.508867 C26.3860593,130.508867 28.6372737,128.758964 28.6372737,124.753161 L28.6372737,110.141351 L37.1607319,110.141351 L37.1607319,125.331777 C37.1607319,130.491298 34.5557888,138.005107 22.9928398,138.005107 Z" id="Fill-1" fill="#E4E3E3"></path>
                        <path d="M22.9928398,65.1954234 C34.5557888,65.1954234 37.1607319,57.6816149 37.1607319,52.5256078 L37.1607319,37.3316679 L28.6372737,37.3316679 L28.6372737,51.9446493 C28.6372737,55.9504521 26.3860593,57.7015267 22.9928398,57.7015267 C19.5961064,57.7015267 17.3437207,55.9504521 17.3437207,51.9446493 L17.3437207,37.3316679 L8.8190912,37.3316679 L8.8190912,52.5256078 C8.8190912,57.6816149 11.4287195,65.1954234 22.9928398,65.1954234" id="Fill-3" fill="#E4E3E3"></path>
                        <path d="M51.3347148,165.868862 C62.8976638,165.868862 65.5014356,158.353882 65.5014356,153.195533 L65.5014356,138.005107 L56.9791487,138.005107 L56.9791487,152.616917 C56.9791487,156.621548 54.726763,158.372623 51.3347148,158.372623 C47.9368101,158.372623 45.6855957,156.621548 45.6855957,152.616917 L45.6855957,138.005107 L37.1609662,138.005107 L37.1609662,153.195533 C37.1609662,158.353882 39.7705945,165.868862 51.3347148,165.868862" id="Fill-5" fill="#E4E3E3"></path>
                        <path d="M219.277765,165.868862 C230.840714,165.868862 233.445657,158.353882 233.445657,153.195533 L233.445657,138.005107 L224.922198,138.005107 L224.922198,152.616917 C224.922198,156.621548 222.670984,158.372623 219.277765,158.372623 C215.87986,158.372623 213.627474,156.621548 213.627474,152.616917 L213.627474,138.005107 L205.104016,138.005107 L205.104016,153.195533 C205.104016,158.353882 207.713644,165.868862 219.277765,165.868862" id="Fill-7" fill="#E4E3E3"></path>
                        <path d="M51.3347148,36.6554837 C62.8976638,36.6554837 65.5014356,29.1405039 65.5014356,23.9821543 L65.5014356,8.79172824 L56.9791487,8.79172824 L56.9791487,23.4035383 C56.9791487,27.4081699 54.726763,29.1592445 51.3347148,29.1592445 C47.9368101,29.1592445 45.6855957,27.4081699 45.6855957,23.4035383 L45.6855957,8.79172824 L37.1609662,8.79172824 L37.1609662,23.9821543 C37.1609662,29.1405039 39.7705945,36.6554837 51.3347148,36.6554837" id="Fill-9" fill="#E4E3E3"></path>
                        <path d="M219.277765,36.6554837 C230.840714,36.6554837 233.445657,29.1405039 233.445657,23.9821543 L233.445657,8.79172824 L224.922198,8.79172824 L224.922198,23.4035383 C224.922198,27.4081699 222.670984,29.1592445 219.277765,29.1592445 C215.87986,29.1592445 213.627474,27.4081699 213.627474,23.4035383 L213.627474,8.79172824 L205.104016,8.79172824 L205.104016,23.9821543 C205.104016,29.1405039 207.713644,36.6554837 219.277765,36.6554837" id="Fill-11" fill="#E4E3E3"></path>
                        <path d="M247.485879,65.1954234 C259.048828,65.1954234 261.653771,57.6816149 261.653771,52.5256078 L261.653771,37.3316679 L253.130312,37.3316679 L253.130312,51.9446493 C253.130312,55.9504521 250.879098,57.7015267 247.485879,57.7015267 C244.087974,57.7015267 241.835588,55.9504521 241.835588,51.9446493 L241.835588,37.3316679 L233.31213,37.3316679 L233.31213,52.5256078 C233.31213,57.6816149 235.920587,65.1954234 247.485879,65.1954234" id="Fill-13" fill="#E4E3E3"></path>
                        <path d="M247.485879,138.005107 C259.048828,138.005107 261.653771,130.491298 261.653771,125.331777 L261.653771,110.141351 L253.130312,110.141351 L253.130312,124.753161 C253.130312,128.758964 250.879098,130.508867 247.485879,130.508867 C244.087974,130.508867 241.835588,128.758964 241.835588,124.753161 L241.835588,110.141351 L233.31213,110.141351 L233.31213,125.331777 C233.31213,130.491298 235.920587,138.005107 247.485879,138.005107" id="Fill-15" fill="#E4E3E3"></path>
                        <path d="M157.207967,98.5306136 L157.207967,83.3366737 L148.684508,83.3366737 L148.684508,97.9496551 C148.684508,101.955458 146.433294,103.706533 143.040075,103.706533 C139.640999,103.706533 137.392127,101.955458 137.392127,97.9496551 L137.392127,83.3366737 L128.866326,83.3366737 L128.866326,98.5306136 C128.866326,103.686621 131.471269,111.200429 143.040075,111.200429 C154.601852,111.200429 157.207967,103.686621 157.207967,98.5306136 Z" id="Fill-17" fill="#015294"></path>
                        <path d="M93.8440134,98.5306136 L93.8440134,83.3366737 L85.3217264,83.3366737 L85.3217264,97.9496551 C85.3217264,101.955458 83.0693408,103.706533 79.6772925,103.706533 C76.2782166,103.706533 74.0270022,101.955458 74.0270022,97.9496551 L74.0270022,83.3366737 L65.5023727,83.3366737 L65.5023727,98.5306136 C65.5023727,103.686621 68.1131722,111.200429 79.6772925,111.200429 C91.2390703,111.200429 93.8440134,103.686621 93.8440134,98.5306136 Z" id="Fill-19" fill="#015294"></path>
                        <path d="M97.1848764,94.951745 L97.1848764,110.142171 L105.708335,110.142171 L105.708335,95.5280184 C105.708335,91.5315859 107.96072,89.7769974 111.357454,89.7769974 C114.751845,89.7769974 117.001888,91.5315859 117.001888,95.5280184 L117.001888,110.142171 L125.527688,110.142171 L125.527688,94.951745 C125.527688,89.7945667 122.920403,82.2831007 111.357454,82.2831007 C99.7933334,82.2831007 97.1848764,89.7945667 97.1848764,94.951745 Z" id="Fill-21" fill="#015294"></path>
                        <path d="M173.245936,82.2828665 C166.14325,82.2828665 160.545667,85.8260108 160.545667,94.3916354 L160.545667,110.140766 L168.879377,110.140766 L168.879377,94.3764087 C168.879377,91.6156843 170.290778,89.499168 173.734363,89.499168 C177.180291,89.499168 178.590521,91.6156843 178.590521,94.3764087 L178.590521,110.140766 L186.926573,110.140766 L186.926573,94.3764087 C186.926573,91.6156843 188.336803,89.499168 191.780388,89.499168 C195.226315,89.499168 196.637717,91.6156843 196.637717,94.3764087 L196.637717,110.140766 L204.970255,110.140766 L204.970255,94.3916354 C204.970255,85.8260108 199.373844,82.2828665 192.271157,82.2828665 C185.303169,82.2828665 183.124574,86.0965782 182.761475,86.5873476 C182.392519,86.0965782 180.219781,82.2828665 173.245936,82.2828665 Z" id="Fill-23" fill="#015294"></path>
                        <path d="M111.355931,78.8944492 C115.224693,78.8944492 118.267698,75.9170367 118.267698,72.042418 C118.267698,68.1724845 115.224693,65.1962433 111.355931,65.1962433 C107.446174,65.1962433 104.346947,68.1724845 104.346947,72.042418 C104.346947,75.9170367 107.446174,78.8944492 111.355931,78.8944492 Z" id="Fill-25" fill="#5E88A1"></path>
                        <path d="M143.038435,78.8944492 C146.907197,78.8944492 149.946688,75.9170367 149.946688,72.042418 C149.946688,68.1724845 146.907197,65.1962433 143.038435,65.1962433 C139.129849,65.1962433 136.02828,68.1724845 136.02828,72.042418 C136.02828,75.9170367 139.129849,78.8944492 143.038435,78.8944492 Z" id="Fill-27" fill="#5E88A1"></path>
                        <path d="M182.761592,78.8944492 C186.630354,78.8944492 189.672188,75.9170367 189.672188,72.042418 C189.672188,68.1724845 186.630354,65.1962433 182.761592,65.1962433 C178.851835,65.1962433 175.751437,68.1724845 175.751437,72.042418 C175.751437,75.9170367 178.851835,78.8944492 182.761592,78.8944492 Z" id="Fill-29" fill="#5E88A1"></path>
                        <mask id="mask-2" fill="white">
                            <use xlink:href="#path-1"></use>
                        </mask>
                        <g id="Clip-32"></g>
                        <polygon id="Stroke-31" stroke="#221F20" stroke-width="0.5" mask="url(#mask-2)" points="37.0115099 138.154797 233.463343 138.154797 233.463343 37.181626 37.0115099 37.181626"></polygon>
                        <path d="M270.473565,37.3315508 L233.31213,37.3315508" id="Stroke-33" stroke="#555659" stroke-width="0.395" stroke-dasharray="1.866,1.866" mask="url(#mask-2)"></path>
                        <path d="M233.31213,37.3315508 L233.31213,0.17128738" id="Stroke-34" stroke="#555659" stroke-width="0.395" stroke-dasharray="1.866,1.866" mask="url(#mask-2)"></path>
                        <path d="M0.00058564369,37.3315508 L37.1608491,37.3315508" id="Stroke-35" stroke="#555659" stroke-width="0.395" stroke-dasharray="1.866,1.866" mask="url(#mask-2)"></path>
                        <path d="M0.00058564369,138.005107 L37.1608491,138.005107" id="Stroke-36" stroke="#555659" stroke-width="0.395" stroke-dasharray="1.866,1.866" mask="url(#mask-2)"></path>
                        <path d="M233.31213,138.005107 L270.473565,138.005107" id="Stroke-37" stroke="#555659" stroke-width="0.395" stroke-dasharray="1.866,1.866" mask="url(#mask-2)"></path>
                        <path d="M65.5022555,0.171755895 L65.5022555,175.164433" id="Stroke-38" stroke="#555659" stroke-width="0.395" stroke-dasharray="1.992,1.992" mask="url(#mask-2)"></path>
                        <path d="M37.1608491,0.171755895 L37.1608491,37.3320193" id="Stroke-39" stroke="#555659" stroke-width="0.395" stroke-dasharray="1.866,1.866" mask="url(#mask-2)"></path>
                        <path d="M37.1608491,138.005107 L37.1608491,175.16537" id="Stroke-40" stroke="#555659" stroke-width="0.395" stroke-dasharray="1.866,1.866" mask="url(#mask-2)"></path>
                        <path d="M233.31213,138.005107 L233.31213,175.16537" id="Stroke-41" stroke="#555659" stroke-width="0.395" stroke-dasharray="1.866,1.866" mask="url(#mask-2)"></path>
                        <path d="M270.473565,65.1954234 L-0.000117128738,65.1954234" id="Stroke-42" stroke="#555659" stroke-width="0.395" stroke-dasharray="1.974,1.974" mask="url(#mask-2)"></path>
                        <path d="M204.970138,0.171755895 L204.970138,175.164433" id="Stroke-43" stroke="#555659" stroke-width="0.395" stroke-dasharray="1.992,1.992" mask="url(#mask-2)"></path>
                        <path d="M270.473565,110.141234 L-0.000117128738,110.141234" id="Stroke-44" stroke="#555659" stroke-width="0.395" stroke-dasharray="1.974,1.974" mask="url(#mask-2)"></path>
                        <path d="M209.572991,83.9451399 C208.797361,83.9451399 208.130698,83.6625933 207.572984,83.0974915 C207.015269,82.5323898 206.736416,81.8583406 206.736416,81.0753238 C206.736416,80.2824577 207.017115,79.6059463 207.578524,79.0457692 C208.139932,78.4855921 208.815828,78.2055077 209.606232,78.2055077 C210.396635,78.2055077 211.072531,78.4855921 211.63394,79.0457692 C212.195348,79.6059463 212.476048,80.2799955 212.476048,81.0679369 C212.476048,81.8706522 212.194732,82.5508571 211.632093,83.1085719 C211.069453,83.6662867 210.383093,83.9451399 209.572991,83.9451399 Z M209.572991,83.5351662 C210.375706,83.5351662 211.013436,83.2409237 211.486201,82.65243 C211.872785,82.1722782 212.066074,81.6453502 212.066074,81.0716304 C212.066074,80.5028351 211.872785,79.9783695 211.486201,79.4982177 C211.013436,78.9097239 210.386786,78.6154814 209.606232,78.6154814 C208.825677,78.6154814 208.199027,78.9097239 207.726262,79.4982177 C207.339678,79.9783695 207.146389,80.5040663 207.146389,81.0753238 C207.146389,81.745074 207.38523,82.3224787 207.86292,82.8075552 C208.343072,83.2926316 208.91309,83.5351662 209.572991,83.5351662 Z M208.660707,82.6376561 L208.660707,79.5351522 L209.639473,79.5351522 C209.952187,79.5351522 210.186719,79.5985559 210.343076,79.7253653 C210.499433,79.8521746 210.577611,80.0423857 210.577611,80.2960044 C210.577611,80.4831405 210.532059,80.6518067 210.440953,80.802008 C210.349847,80.9522093 210.214422,81.0827102 210.034673,81.1935144 L210.969117,82.6376561 L210.389245,82.6376561 L209.55083,81.3449462 L209.159323,81.3449462 L209.159323,82.6376561 L208.660707,82.6376561 Z M209.126082,80.9571332 L209.270127,80.9571332 C209.543444,80.9571332 209.748429,80.9060409 209.885088,80.8038547 C210.021746,80.7016686 210.090075,80.5483916 210.090075,80.3440193 C210.090075,80.1815064 210.032826,80.0596235 209.918329,79.9783671 C209.803831,79.8971106 209.632087,79.856483 209.403091,79.856483 L209.126082,79.856483 L209.126082,80.9571332 Z" id="®" fill="#336094" mask="url(#mask-2)"></path>
                    </g>
                </g>
            </g>
        </g>
    </g>
</svg>

<svg width="271" height="174" viewBox="0 0 271 174" xmlns="http://www.w3.org/2000/svg" xmlns:xlink="http://www.w3.org/1999/xlink"><title>clear-space-logo</title><defs><path id="a" d="M0 175.165h270.474V.171H0z"/></defs><g fill="none" fill-rule="evenodd"><path d="M22.993 138.005c-11.564 0-14.174-7.514-14.174-12.673v-15.19h8.525v14.611c0 4.006 2.252 5.756 5.649 5.756 3.393 0 5.644-1.75 5.644-5.756v-14.612h8.524v15.19c0 5.16-2.605 12.674-14.168 12.674zm0-72.81c11.563 0 14.168-7.513 14.168-12.67V37.333h-8.524v14.613c0 4.005-2.25 5.757-5.644 5.757-3.397 0-5.65-1.752-5.65-5.757V37.332H8.82v15.194c0 5.156 2.61 12.67 14.174 12.67m28.341 100.673c11.563 0 14.166-7.515 14.166-12.673v-15.19H56.98v14.61c0 4.006-2.252 5.757-5.644 5.757-3.398 0-5.65-1.751-5.65-5.756v-14.612h-8.524v15.19c0 5.159 2.61 12.674 14.174 12.674m167.942 0c11.563 0 14.168-7.515 14.168-12.673v-15.19h-8.524v14.61c0 4.006-2.251 5.757-5.644 5.757-3.398 0-5.65-1.751-5.65-5.756v-14.612h-8.524v15.19c0 5.159 2.61 12.674 14.174 12.674M51.335 36.655c11.563 0 14.166-7.514 14.166-12.673V8.792H56.98v14.612c0 4.004-2.252 5.755-5.644 5.755-3.398 0-5.65-1.75-5.65-5.755V8.792h-8.524v15.19c0 5.159 2.61 12.673 14.174 12.673m167.942 0c11.563 0 14.168-7.514 14.168-12.673V8.792h-8.524v14.612c0 4.004-2.251 5.755-5.644 5.755-3.398 0-5.65-1.75-5.65-5.755V8.792h-8.524v15.19c0 5.159 2.61 12.673 14.174 12.673m28.208 28.54c11.563 0 14.168-7.513 14.168-12.67V37.333h-8.524v14.613c0 4.005-2.25 5.757-5.644 5.757-3.398 0-5.65-1.752-5.65-5.757V37.332h-8.524v15.194c0 5.156 2.609 12.67 14.174 12.67m0 72.809c11.563 0 14.168-7.514 14.168-12.673v-15.19h-8.524v14.611c0 4.006-2.25 5.756-5.644 5.756-3.398 0-5.65-1.75-5.65-5.756v-14.612h-8.524v15.19c0 5.16 2.609 12.674 14.174 12.674" fill="#E4E3E3"/><path d="M157.208 98.53V83.338h-8.523V97.95c0 4.005-2.252 5.757-5.645 5.757-3.399 0-5.648-1.752-5.648-5.757V83.337h-8.526V98.53c0 5.156 2.605 12.67 14.174 12.67 11.562 0 14.168-7.514 14.168-12.67zm-63.364 0V83.338h-8.522V97.95c0 4.005-2.253 5.757-5.645 5.757-3.399 0-5.65-1.752-5.65-5.757V83.337h-8.525V98.53c0 5.156 2.611 12.67 14.175 12.67 11.562 0 14.167-7.514 14.167-12.67zm3.341-3.578v15.19h8.523V95.528c0-3.996 2.253-5.751 5.65-5.751 3.394 0 5.644 1.755 5.644 5.751v14.614h8.526v-15.19c0-5.157-2.608-12.669-14.17-12.669-11.565 0-14.173 7.512-14.173 12.669zm76.061-12.669c-7.103 0-12.7 3.543-12.7 12.109v15.749h8.333V94.376c0-2.76 1.412-4.877 4.855-4.877 3.446 0 4.857 2.117 4.857 4.877v15.765h8.336V94.376c0-2.76 1.41-4.877 4.853-4.877 3.446 0 4.858 2.117 4.858 4.877v15.765h8.332V94.39c0-8.565-5.596-12.108-12.699-12.108-6.968 0-9.146 3.814-9.51 4.304-.368-.49-2.541-4.304-9.515-4.304z" fill="#015294"/><path d="M111.356 78.894c3.869 0 6.912-2.977 6.912-6.852 0-3.87-3.043-6.846-6.912-6.846-3.91 0-7.01 2.976-7.01 6.846 0 3.875 3.1 6.852 7.01 6.852zm31.682 0c3.87 0 6.909-2.977 6.909-6.852 0-3.87-3.04-6.846-6.909-6.846-3.908 0-7.01 2.976-7.01 6.846 0 3.875 3.102 6.852 7.01 6.852zm39.724 0c3.868 0 6.91-2.977 6.91-6.852 0-3.87-3.042-6.846-6.91-6.846-3.91 0-7.01 2.976-7.01 6.846 0 3.875 3.1 6.852 7.01 6.852z" fill="#5E88A1"/><mask id="b" fill="#fff"><use xlink:href="#a"/></mask><path stroke="#221F20" stroke-width=".5" mask="url(#b)" d="M37.012 138.155h196.451V37.182H37.012z"/><path d="M270.474 37.332h-37.162m0 0V.172M0 37.332h37.16M0 138.005h37.16m196.152 0h37.162" stroke="#555659" stroke-width=".395" stroke-dasharray="1.866,1.866" mask="url(#b)"/><path d="M65.502.172v174.992" stroke="#555659" stroke-width=".395" stroke-dasharray="1.992,1.992" mask="url(#b)"/><path d="M37.16.172v37.16m0 100.673v37.16m196.152-37.16v37.16" stroke="#555659" stroke-width=".395" stroke-dasharray="1.866,1.866" mask="url(#b)"/><path d="M270.474 65.195H0" stroke="#555659" stroke-width=".395" stroke-dasharray="1.974,1.974" mask="url(#b)"/><path d="M204.97.172v174.992" stroke="#555659" stroke-width=".395" stroke-dasharray="1.992,1.992" mask="url(#b)"/><path d="M270.474 110.141H0" stroke="#555659" stroke-width=".395" stroke-dasharray="1.974,1.974" mask="url(#b)"/><path d="M209.573 83.945c-.776 0-1.442-.282-2-.848a2.779 2.779 0 0 1-.837-2.022c0-.793.281-1.47.843-2.03a2.767 2.767 0 0 1 2.027-.84c.79 0 1.467.28 2.028.84.561.56.842 1.235.842 2.023 0 .803-.281 1.483-.844 2.04-.563.558-1.249.837-2.059.837zm0-.41c.803 0 1.44-.294 1.913-.883.387-.48.58-1.007.58-1.58 0-.57-.193-1.094-.58-1.574-.473-.588-1.1-.883-1.88-.883-.78 0-1.407.295-1.88.883-.386.48-.58 1.006-.58 1.577 0 .67.24 1.247.717 1.733.48.485 1.05.727 1.71.727zm-.912-.897v-3.103h.978c.313 0 .548.064.704.19.156.127.235.317.235.571a.956.956 0 0 1-.137.506c-.091.15-.227.28-.406.392l.934 1.444h-.58l-.838-1.293h-.392v1.293h-.498zm.465-1.68h.144c.273 0 .478-.052.615-.154.137-.102.205-.256.205-.46 0-.162-.057-.284-.172-.366-.114-.08-.286-.122-.515-.122h-.277v1.101z" fill="#336094" mask="url(#b)"/></g></svg>
